assets/static/img/advantages-arrows.svg

<svg xmlns="http://www.w3.org/2000/svg" width="1217" height="632" fill="none"><path stroke="#fff" stroke-width="1.5" d="m19 140-8.5-9-9.5 9M413 489l-8.5-9-9.5 9M824 137l-8.5-9-9.5 9M1215 494l-8.5-9-9.5 9M206 19l9-8.5-9-9.5M207 631l9-8.5-9-9.5M608 373l9-8.5-9-9.5M1009 631l9-8.5-9-9.5M608 289l9-8.5-9-9.5M1010 20l9-8.5-9-9.5M1012 330l-9-8.5 9-9.5M1135 366l-9-8.5 9-9.5M209 330l-9-8.5 9-9.5M396 132l8.5 9 9.5-9M807 489l8.5 9 9.5-9M1 463l8.5 9 9.5-9M1198 139l8.5 9 9.5-9"/><path stroke="#fff" stroke-dasharray="3.5 3.5" stroke-opacity=".9" stroke-width="1.5" d="M10 280.5V26c0-8.284 6.716-15 15-15h364.215c8.285 0 15 6.716 15 15v239.5c0 8.284 6.716 15 15 15h381.309c8.284 0 15-6.716 15-15V26c0-8.284 6.716-15 15-15H1191c8.28 0 15 6.716 15 15v280.5c0 8.284-6.72 15-15 15H25c-8.284 0-15 6.716-15 15V607c0 8.284 6.716 15 15 15h364.215c8.285 0 15-6.716 15-15V379c0-8.284 6.716-15 15-15h381.309c8.284 0 15 6.716 15 15v228c0 8.284 6.716 15 15 15H1191c8.28 0 15-6.716 15-15V372c0-8.284-6.72-15-15-15h-65.5"/></svg>

<svg width="1217" height="632" viewBox="0 0 1217 632" fill="none" xmlns="http://www.w3.org/2000/svg">
	<path d="M19 140L10.5 131L1 140" stroke="white" stroke-width="1.5" />
	<path d="M413 489L404.5 480L395 489" stroke="white" stroke-width="1.5" />
	<path d="M824 137L815.5 128L806 137" stroke="white" stroke-width="1.5" />
	<path d="M1215 494L1206.5 485L1197 494" stroke="white" stroke-width="1.5" />
	<path d="M206 19L215 10.5L206 0.999999" stroke="white" stroke-width="1.5" />
	<path d="M207 631L216 622.5L207 613" stroke="white" stroke-width="1.5" />
	<path d="M608 373L617 364.5L608 355" stroke="white" stroke-width="1.5" />
	<path d="M1009 631L1018 622.5L1009 613" stroke="white" stroke-width="1.5" />
	<path d="M608 289L617 280.5L608 271" stroke="white" stroke-width="1.5" />
	<path d="M1010 20L1019 11.5L1010 2" stroke="white" stroke-width="1.5" />
	<path d="M1012 330L1003 321.5L1012 312" stroke="white" stroke-width="1.5" />
	<path d="M1135 366L1126 357.5L1135 348" stroke="white" stroke-width="1.5" />
	<path d="M209 330L200 321.5L209 312" stroke="white" stroke-width="1.5" />
	<path d="M396 132L404.5 141L414 132" stroke="white" stroke-width="1.5" />
	<path d="M807 489L815.5 498L825 489" stroke="white" stroke-width="1.5" />
	<path d="M1 463L9.5 472L19 463" stroke="white" stroke-width="1.5" />
	<path d="M1198 139L1206.5 148L1216 139" stroke="white" stroke-width="1.5" />
	<path d="M10 280.5V26C10 17.7157 16.7157 11 25 11H389.215C397.5 11 404.215 17.7157 404.215 26V265.5C404.215 273.784 410.931 280.5 419.215 280.5H800.524C808.808 280.5 815.524 273.784 815.524 265.5V26C815.524 17.7157 822.24 11 830.524 11H1191C1199.28 11 1206 17.7157 1206 26V306.5C1206 314.784 1199.28 321.5 1191 321.5H25C16.7158 321.5 10 328.216 10 336.5V607C10 615.284 16.7157 622 25 622H389.215C397.5 622 404.215 615.284 404.215 607V379C404.215 370.716 410.931 364 419.215 364H800.524C808.808 364 815.524 370.716 815.524 379V607C815.524 615.284 822.24 622 830.524 622H1191C1199.28 622 1206 615.284 1206 607V372C1206 363.716 1199.28 357 1191 357H1125.5" stroke="white" stroke-opacity="0.9" stroke-width="1.5" stroke-dasharray="3.5 3.5" />
</svg>
